packages/blockchain-info-components/src/Images/img/ss-bc-logo.svg

<svg fill="none" height="69" viewBox="0 0 184 69" width="184" xmlns="http://www.w3.org/2000/svg" xmlns:xlink="http://www.w3.org/1999/xlink"><clipPath id="a"><path d="m114.496 0h69v69h-69z"/></clipPath><mask id="b" fill="#000" height="17" maskUnits="userSpaceOnUse" width="29" x="63.7944" y="26.1154"><path d="m63.7944 26.1154h29v17h-29z" fill="#fff"/><path clip-rule="evenodd" d="m82.6038 28.4412c-.3181-.2654-.3607-.7384-.0953-1.0564s.7384-.3606 1.0564-.0952l7.4825 6.2451c.5989.4998.5987 1.42-.0003 1.9196l-7.5013 6.2563c-.3181.2653-.7911.2225-1.0564-.0956s-.2225-.7911.0956-1.0564l6.365-5.3085h-23.4056c-.4142 0-.75-.3358-.75-.75 0-.4143.3358-.75.75-.75h23.4201z" fill="#000" fill-rule="evenodd"/></mask><g fill="#fff"><path clip-rule="evenodd" d="m25.4514 23.8092 8.1712 8.1705 8.1718-8.1705zm16.343-3.5648-18.8633-18.8633v18.8633zm-22.4281 0v-18.8633l-18.862638 18.8633zm-2.5203 24.9478-8.17118-8.1711-8.171158 8.1711zm-16.342338 3.5641 18.862638 18.8626v-18.8626zm22.427438 0v18.8626l18.8633-18.8626zm-22.427438-24.9471 21.383038 21.3823 19.9077.0014-21.3844-21.3837z" fill-rule="evenodd"/><path clip-rule="evenodd" d="m82.6038 28.4412c-.3181-.2654-.3607-.7384-.0953-1.0564s.7384-.3606 1.0564-.0952l7.4825 6.2451c.5989.4998.5987 1.42-.0003 1.9196l-7.5013 6.2563c-.3181.2653-.7911.2225-1.0564-.0956s-.2225-.7911.0956-1.0564l6.365-5.3085h-23.4056c-.4142 0-.75-.3358-.75-.75 0-.4143.3358-.75.75-.75h23.4201z" fill-rule="evenodd"/><path d="m82.5085 27.3848.3839.3204zm.0953 1.0564-.3204.3838zm.9611-1.1516-.3204.3838zm7.4825 6.2451.3204-.3839zm-.0003 1.9196.3202.384zm-7.5013 6.2563.3202.384zm-1.0564-.0956.384-.3203zm.0956-1.0564-.3202-.3839zm6.365-5.3085.3202.3839 1.0599-.8839h-1.3801zm-23.4056 0v-.5zm0-1.5v-.5zm23.4201 0v.5h1.3794l-1.059-.8839zm-6.8398-6.6857c-.4424.53-.3713 1.3183.1587 1.7606l.6407-.7677c-.106-.0885-.1202-.2461-.0317-.3521zm1.7606-.1587c-.53-.4424-1.3183-.3713-1.7606.1587l.7677.6408c.0885-.106.2461-.1202.3521-.0318zm7.4825 6.2451-7.4825-6.2451-.6408.7677 7.4825 6.2451zm-.0005 2.6875c.8387-.6995.8389-1.9878.0005-2.6875l-.6408.7677c.3593.2999.3592.852-.0002 1.1518zm-7.5013 6.2563 7.5013-6.2563-.6405-.768-7.5013 6.2563zm-1.7606-.1594c.4422.5302 1.2304.6015 1.7606.1594l-.6405-.768c-.106.0884-.2637.0742-.3521-.0319zm.1594-1.7605c-.5302.4421-.6015 1.2304-.1594 1.7605l.768-.6405c-.0884-.106-.0742-.2636.0319-.3521zm6.3649-5.3086-6.3649 5.3086.6405.7679 6.3649-5.3086zm.3203-.116h-23.4056v1h23.4056zm-23.4056 0c-.138 0-.25-.112-.25-.25h-1c0 .6903.5597 1.25 1.25 1.25zm-.25-.25c0-.1381.112-.25.25-.25v-1c-.6903 0-1.25.5596-1.25 1.25zm.25-.25h23.4201v-1h-23.4201zm16.739-5.4251 6.3608 5.3089.6407-.7677-6.3608-5.3089z" mask="url(#b)"/></g><g clip-path="url(#a)"><path d="m120.4 25.0756-3.148 3.1482c-.871.837-1.564 1.8415-2.038 2.9531-.473 1.1115-.718 2.3074-.718 3.5156 0 1.2083.245 2.4041.718 3.5157.474 1.1116 1.167 2.116 2.038 2.9531l25.362 25.612c.601.6149 1.301 1.1251 2.07 1.5094v-31.0458z" fill="#3d89f5"/><path d="m177.593 25.0756 3.148 3.1482c.871.837 1.564 1.8415 2.038 2.9531.473 1.1115.717 2.3074.717 3.5156 0 1.2083-.244 2.4041-.717 3.5157-.474 1.1116-1.167 2.116-2.038 2.9531l-25.362 25.612c-.601.6149-1.301 1.1251-2.07 1.5094v-31.0458z" fill="#1656b9"/><path d="m171.503 18.65-15.87-15.91313c-.84-.86593-1.845-1.55439-2.956-2.024514-1.112-.470121-2.306-.712356-3.512-.712356-1.207 0-2.401.242235-3.512.712356-1.111.470124-2.117 1.158584-2.957 2.024514l-15.913 15.91313 22.295 11.1262z" fill="#85b5f8"/></g></svg>

<svg width="184" height="69" viewBox="0 0 184 69" fill="none" xmlns="http://www.w3.org/2000/svg">
<path fill-rule="evenodd" clip-rule="evenodd" d="M25.4514 23.8092L33.6226 31.9797L41.7944 23.8092H25.4514ZM41.7944 20.2444L22.9311 1.3811V20.2444H41.7944ZM19.3663 20.2444V1.3811L0.503662 20.2444H19.3663ZM16.846 45.1922L8.67482 37.0211L0.503662 45.1922H16.846ZM0.503662 48.7563L19.3663 67.6189V48.7563H0.503662ZM22.9311 48.7563V67.6189L41.7944 48.7563H22.9311ZM0.503662 23.8092L21.8867 45.1915L41.7944 45.1929L20.41 23.8092H0.503662Z" fill="white"/>
<mask id="path-2-outside-1_856_8766" maskUnits="userSpaceOnUse" x="63.7944" y="26.1154" width="29" height="17" fill="black">
<rect fill="white" x="63.7944" y="26.1154" width="29" height="17"/>
<path fill-rule="evenodd" clip-rule="evenodd" d="M82.6038 28.4412C82.2857 28.1758 82.2431 27.7028 82.5085 27.3848C82.7739 27.0668 83.2469 27.0242 83.5649 27.2896L91.0474 33.5347C91.6463 34.0345 91.6461 34.9547 91.0471 35.4543L83.5458 41.7106C83.2277 41.9759 82.7547 41.9331 82.4894 41.615C82.2241 41.2969 82.2669 40.8239 82.585 40.5586L88.95 35.2501L65.5444 35.2501C65.1302 35.2501 64.7944 34.9143 64.7944 34.5001C64.7944 34.0858 65.1302 33.7501 65.5444 33.7501L88.9645 33.7501L82.6038 28.4412Z"/>
</mask>
<path fill-rule="evenodd" clip-rule="evenodd" d="M82.6038 28.4412C82.2857 28.1758 82.2431 27.7028 82.5085 27.3848C82.7739 27.0668 83.2469 27.0242 83.5649 27.2896L91.0474 33.5347C91.6463 34.0345 91.6461 34.9547 91.0471 35.4543L83.5458 41.7106C83.2277 41.9759 82.7547 41.9331 82.4894 41.615C82.2241 41.2969 82.2669 40.8239 82.585 40.5586L88.95 35.2501L65.5444 35.2501C65.1302 35.2501 64.7944 34.9143 64.7944 34.5001C64.7944 34.0858 65.1302 33.7501 65.5444 33.7501L88.9645 33.7501L82.6038 28.4412Z" fill="white"/>
<path d="M82.5085 27.3848L82.8924 27.7052L82.8924 27.7052L82.5085 27.3848ZM82.6038 28.4412L82.2834 28.825V28.825L82.6038 28.4412ZM83.5649 27.2896L83.2445 27.6734V27.6734L83.5649 27.2896ZM91.0474 33.5347L91.3678 33.1508V33.1508L91.0474 33.5347ZM91.0471 35.4543L91.3673 35.8383V35.8383L91.0471 35.4543ZM83.5458 41.7106L83.866 42.0946L83.866 42.0946L83.5458 41.7106ZM82.4894 41.615L82.8734 41.2947L82.8734 41.2947L82.4894 41.615ZM82.585 40.5586L82.2648 40.1747L82.585 40.5586ZM88.95 35.2501L89.2702 35.634L90.3301 34.7501H88.95V35.2501ZM65.5444 35.2501L65.5444 34.7501H65.5444V35.2501ZM65.5444 33.7501L65.5444 33.2501H65.5444V33.7501ZM88.9645 33.7501V34.2501H90.3439L89.2849 33.3662L88.9645 33.7501ZM82.1247 27.0644C81.6823 27.5944 81.7534 28.3827 82.2834 28.825L82.9241 28.0573C82.8181 27.9688 82.8039 27.8112 82.8924 27.7052L82.1247 27.0644ZM83.8853 26.9057C83.3553 26.4633 82.567 26.5344 82.1247 27.0644L82.8924 27.7052C82.9809 27.5992 83.1385 27.585 83.2445 27.6734L83.8853 26.9057ZM91.3678 33.1508L83.8853 26.9057L83.2445 27.6734L90.727 33.9185L91.3678 33.1508ZM91.3673 35.8383C92.206 35.1388 92.2062 33.8505 91.3678 33.1508L90.727 33.9185C91.0863 34.2184 91.0862 34.7705 90.7268 35.0703L91.3673 35.8383ZM83.866 42.0946L91.3673 35.8383L90.7268 35.0703L83.2255 41.3266L83.866 42.0946ZM82.1054 41.9352C82.5476 42.4654 83.3358 42.5367 83.866 42.0946L83.2255 41.3266C83.1195 41.415 82.9618 41.4008 82.8734 41.2947L82.1054 41.9352ZM82.2648 40.1747C81.7346 40.6168 81.6633 41.4051 82.1054 41.9352L82.8734 41.2947C82.785 41.1887 82.7992 41.0311 82.9053 40.9426L82.2648 40.1747ZM88.6297 34.8661L82.2648 40.1747L82.9053 40.9426L89.2702 35.634L88.6297 34.8661ZM88.95 34.7501L65.5444 34.7501L65.5444 35.7501L88.95 35.7501V34.7501ZM65.5444 34.7501C65.4064 34.7501 65.2944 34.6381 65.2944 34.5001H64.2944C64.2944 35.1904 64.8541 35.7501 65.5444 35.7501V34.7501ZM65.2944 34.5001C65.2944 34.362 65.4064 34.2501 65.5444 34.2501V33.2501C64.8541 33.2501 64.2944 33.8097 64.2944 34.5001H65.2944ZM65.5444 34.2501L88.9645 34.2501V33.2501L65.5444 33.2501L65.5444 34.2501ZM82.2834 28.825L88.6442 34.1339L89.2849 33.3662L82.9241 28.0573L82.2834 28.825Z" fill="white" mask="url(#path-2-outside-1_856_8766)"/>
<g clip-path="url(#clip0_856_8766)">
<path d="M120.4 25.0756L117.252 28.2238C116.381 29.0608 115.688 30.0653 115.214 31.1769C114.741 32.2884 114.496 33.4843 114.496 34.6925C114.496 35.9008 114.741 37.0966 115.214 38.2082C115.688 39.3198 116.381 40.3242 117.252 41.1613L142.614 66.7733C143.215 67.3882 143.915 67.8984 144.684 68.2827V37.2369L120.4 25.0756Z" fill="#3D89F5"/>
<path d="M177.593 25.0756L180.741 28.2238C181.612 29.0608 182.305 30.0653 182.779 31.1769C183.252 32.2884 183.496 33.4843 183.496 34.6925C183.496 35.9008 183.252 37.0966 182.779 38.2082C182.305 39.3198 181.612 40.3242 180.741 41.1613L155.379 66.7733C154.778 67.3882 154.078 67.8984 153.309 68.2827V37.2369L177.593 25.0756Z" fill="#1656B9"/>
<path d="M171.503 18.65L155.633 2.73687C154.793 1.87094 153.788 1.18248 152.677 0.712356C151.565 0.242235 150.371 0 149.165 0C147.958 0 146.764 0.242235 145.653 0.712356C144.542 1.18248 143.536 1.87094 142.696 2.73687L126.783 18.65L149.078 29.7762L171.503 18.65Z" fill="#85B5F8"/>
</g>
<defs>
<clipPath id="clip0_856_8766">
<rect width="69" height="69" fill="white" transform="translate(114.496)"/>
</clipPath>
</defs>
</svg>
